X: 28532
T: Munster Spring
R: reel
M: 4/4
K: Gmajor
|"G"DGGB "C"AGEG|"G"dedB "C"AGE2|"Em" GABg2fed|"D"BAGF "G"GAG2:|
"G"dedB "C"AGEG|"Em"dedB "D"AGA2|"Em"dedg "G"bagf|"D"edBA "G"GFG2:|

